packages/ffe-icons/icons/filled/md/sound_detection_dog_barking.svg

<svg xmlns="http://www.w3.org/2000/svg" height="24" viewBox="0 -960 960 960" width="24"><path d="M214.001-100.001V-383.31l188.154 187.768q42.076-45.922 74.767-98.421 32.692-52.5 32.692-115.037 0-49.846-19.115-95.768-19.115-45.923-54.269-81.077L325.922-695.383l14.617-14.616h137.692L634-865.768l75.076 74.692q38.462 38.461 59.116 87.422Q788.845-654.692 789.23-600q-.385 54.692-21.038 103.654-20.654 48.961-59.116 87.422l-85.077 84.693v224.23H214.001Zm186.615-181.615L199.924-481.924q-9.846-9.846-14.884-22.922-5.039-13.077-5.039-27.154t5.039-26.654q5.038-12.576 14.884-22.422l77.077-77.692 117.076 115.692q26.846 26.846 41.192 61.422 14.346 34.577 14.346 72.654 0 35.384-12.307 68.038-12.308 32.653-36.692 59.346Z"/></svg>

<svg xmlns="http://www.w3.org/2000/svg" height="24" viewBox="0 -960 960 960" width="24"><path d="M214-100v-283.31l188.15 187.77q42.08-45.92 74.77-98.42T509.61-409q0-49.85-19.11-95.77-19.12-45.92-54.27-81.07L325.92-695.38 340.54-710h137.69L634-865.77l75.08 74.69q38.46 38.47 59.11 87.43 20.66 48.96 21.04 103.65-.38 54.69-21.04 103.65-20.65 48.96-59.11 87.43L624-324.23V-100H214Zm186.62-181.62-200.7-200.3q-9.84-9.85-14.88-22.93Q180-517.92 180-532q0-14.08 5.04-26.65 5.04-12.58 14.88-22.43L277-658.77l117.08 115.69q26.84 26.85 41.19 61.43 14.35 34.57 14.35 72.65 0 35.38-12.31 68.04-12.31 32.65-36.69 59.34Z"/></svg>
